X: 9
T: Munster, The
Z: Fernando Durbán Galnares
S: https://thesession.org/tunes/372#setting46481
R: jig
M: 6/8
L: 1/8
K: Gmaj
|:D|"G"GFG "Am"AGA|"Bm"B2g gdB|"C"GAB cBA|"Am"BGE "D"EDE|
"G"GFG "Am"AGA|"Bm"B2g gdB|"C"cBA "Bm"B/c/dB|"D"AGF "G"G2:|
|:d|"G"gfg "C"efg|"D"eag fed|"G"gfg "C"efg|"D"afd def|
"G"gfe "C"agf|"G"gfe "D"fdB|"C"cBA "Bm"B/c/dB|"D"AGF "G"G2:|

